X:2
T:Garry Owen. RHu.002
S:R.Hughes MS,1823,Whitchurch,Shrops.
A:Whitchurch, Shropshire
Z:Neil Brookes 2006
M:6/8
L:1/8
Q:3/8=120
R:Quickstep
K:G
g|ed.c BA.G|B>cBB2g/f/|ed.c BA.G|A>BAA2g|!
ed.c BA.G|B>cBB2d|defg2B|A>BAA2::!
B|d2Bd2B|d>e.dd2g|e2ce2c|e>f.ee2f|!
g2ab2a|gf.ed2d|de.fg2B|A>BAA2:|

